src/components/00-materials/images-raw/Life & Savings/Bills Pound.svg

<svg xmlns="http://www.w3.org/2000/svg" viewBox="0 0 96 96"><defs><style>.cls-2{fill:none;stroke:#00008f;stroke-linecap:round;stroke-linejoin:round;stroke-width:2px}</style></defs><g id="Layer_2" data-name="Layer 2"><g id="icons"><path fill="#fff" d="M0 0h96v96H0z"/><rect class="cls-2" x="10" y="35" width="66" height="36" rx="1"/><path class="cls-2" d="M15 35v-4a1 1 0 0 1 1-1h64a1 1 0 0 1 1 1v34a1 1 0 0 1-1 1h-4"/><path class="cls-2" d="M20 30v-4a1 1 0 0 1 1-1h64a1 1 0 0 1 1 1v34a1 1 0 0 1-1 1h-4"/><path class="cls-2" d="M67 40H19a4 4 0 0 1-4 4v18a4 4 0 0 1 4 4h48a4 4 0 0 1 4-4V44a4 4 0 0 1-4-4zM65 53h-4M25 53h-4"/><circle class="cls-2" cx="43" cy="53" r="13"/><path class="cls-2" d="M40 49v3.88a10.33 10.33 0 0 1-1.73 5.72L38 59h9M38 53h6M40 49a3 3 0 0 1 6 0"/></g></g></svg>

<svg xmlns="http://www.w3.org/2000/svg" viewBox="0 0 96 96"><defs><style>.cls-1{fill:#fff;}.cls-2{fill:none;stroke:#00008f;stroke-linecap:round;stroke-linejoin:round;stroke-width:2px;}</style></defs><title>Bills Pound</title><g id="Layer_2" data-name="Layer 2"><g id="icons"><rect class="cls-1" width="96" height="96"/><rect class="cls-2" x="10" y="35" width="66" height="36" rx="1"/><path class="cls-2" d="M15,35V31a1,1,0,0,1,1-1H80a1,1,0,0,1,1,1V65a1,1,0,0,1-1,1H76"/><path class="cls-2" d="M20,30V26a1,1,0,0,1,1-1H85a1,1,0,0,1,1,1V60a1,1,0,0,1-1,1H81"/><path class="cls-2" d="M67,40H19a4,4,0,0,1-4,4V62a4,4,0,0,1,4,4H67a4,4,0,0,1,4-4V44A4,4,0,0,1,67,40Z"/><line class="cls-2" x1="65" y1="53" x2="61" y2="53"/><line class="cls-2" x1="25" y1="53" x2="21" y2="53"/><circle class="cls-2" cx="43" cy="53" r="13"/><path class="cls-2" d="M40,49v3.88a10.33,10.33,0,0,1-1.73,5.72L38,59h9"/><line class="cls-2" x1="38" y1="53" x2="44" y2="53"/><path class="cls-2" d="M40,49a3,3,0,0,1,6,0"/></g></g></svg>
